src/icons/editor/glyph/UppercaseIcon.svg

<svg width="24" height="24" viewBox="0 0 24 24" fill="none" xmlns="http://www.w3.org/2000/svg">
<path d="M7.82617 8.6543L4.98926 17.0967H3L6.71875 7.14355H7.99023L7.82617 8.6543ZM10.1982 17.0967L7.34766 8.6543L7.17676 7.14355H8.45508L12.1943 17.0967H10.1982ZM10.0684 13.3984V14.8818H4.72949V13.3984H10.0684Z" fill="currentColor"/>
<path d="M20.8623 11.9492V15.8252C20.7165 16.012 20.4863 16.2148 20.1719 16.4336C19.862 16.6523 19.4564 16.8415 18.9551 17.001C18.4538 17.1559 17.8385 17.2334 17.1094 17.2334C16.4759 17.2334 15.8971 17.1286 15.373 16.9189C14.849 16.7048 14.3978 16.3926 14.0195 15.9824C13.6413 15.5723 13.3496 15.071 13.1445 14.4785C12.9395 13.8861 12.8369 13.2093 12.8369 12.4482V11.792C12.8369 11.0309 12.9326 10.3542 13.124 9.76172C13.32 9.16927 13.598 8.66797 13.958 8.25781C14.3226 7.84766 14.7578 7.53548 15.2637 7.32129C15.7741 7.1071 16.3438 7 16.9727 7C17.8158 7 18.5085 7.139 19.0508 7.41699C19.5977 7.69499 20.0169 8.0778 20.3086 8.56543C20.6003 9.0485 20.7826 9.60449 20.8555 10.2334H19.0234C18.9733 9.88704 18.873 9.58398 18.7227 9.32422C18.5723 9.0599 18.3581 8.85482 18.0801 8.70898C17.8066 8.55859 17.4512 8.4834 17.0137 8.4834C16.6445 8.4834 16.3187 8.55632 16.0361 8.70215C15.7536 8.84798 15.5166 9.0599 15.3252 9.33789C15.1338 9.61589 14.988 9.95996 14.8877 10.3701C14.792 10.7803 14.7441 11.2497 14.7441 11.7783V12.4482C14.7441 12.9814 14.7988 13.4554 14.9082 13.8701C15.0176 14.2803 15.1748 14.6266 15.3799 14.9092C15.5895 15.1872 15.847 15.3991 16.1523 15.5449C16.4622 15.6862 16.8132 15.7568 17.2051 15.7568C17.5605 15.7568 17.8545 15.7272 18.0869 15.668C18.3239 15.6042 18.513 15.529 18.6543 15.4424C18.7956 15.3558 18.9049 15.2715 18.9824 15.1895V13.3232H17.0068V11.9492H20.8623Z" fill="currentColor"/>
</svg>

<svg xmlns="http://www.w3.org/2000/svg" width="24" height="24" fill="currentColor" viewBox="0 0 24 24">
  <path d="M7.826 8.654 4.99 17.097H3l3.719-9.953H7.99l-.164 1.51Zm2.372 8.443-2.85-8.443-.171-1.51h1.278l3.74 9.953h-1.997Zm-.13-3.699v1.484H4.73v-1.484h5.34Zm10.794-1.448v3.875c-.145.187-.376.39-.69.609-.31.218-.716.407-1.217.567-.501.155-1.116.232-1.846.232a4.634 4.634 0 0 1-1.736-.314 3.744 3.744 0 0 1-1.353-.937 4.223 4.223 0 0 1-.875-1.503c-.205-.593-.308-1.27-.308-2.03v-.657c0-.761.096-1.438.287-2.03a4.29 4.29 0 0 1 .834-1.504c.365-.41.8-.723 1.306-.937A4.376 4.376 0 0 1 16.973 7c.843 0 1.536.139 2.078.417.547.278.966.66 1.258 1.148.291.484.474 1.04.546 1.668h-1.832a2.524 2.524 0 0 0-.3-.909 1.55 1.55 0 0 0-.643-.615c-.273-.15-.629-.226-1.066-.226-.37 0-.695.073-.978.22-.282.145-.52.357-.71.635a3.109 3.109 0 0 0-.438 1.032c-.096.41-.144.88-.144 1.408v.67c0 .533.055 1.007.164 1.422.11.41.267.757.472 1.04.21.277.467.49.772.635.31.141.661.212 1.053.212.356 0 .65-.03.882-.089.237-.064.426-.139.567-.226.142-.086.25-.17.328-.252v-1.867h-1.975V11.95h3.855Z"/>
</svg>
